src/assets/icons/i_quotation.svg

<svg height="100" viewBox="0 0 100 100" width="100" xmlns="http://www.w3.org/2000/svg" xmlns:xlink="http://www.w3.org/1999/xlink"><clipPath id="a"><path d="m0 0h100v100h-100z"/></clipPath><g clip-path="url(#a)"><path d="m6.438-56.551v28.824h28.823v-28.824h-16.471a16.472 16.472 0 0 1 16.471-16.471v-12.353a28.822 28.822 0 0 0 -28.823 28.824zm70-16.471v-12.353a28.824 28.824 0 0 0 -28.824 28.824v28.824h28.824v-28.824h-16.471a16.472 16.472 0 0 1 16.471-16.471z" fill-rule="evenodd" transform="translate(8.563 106.375)"/></g></svg>

<svg xmlns="http://www.w3.org/2000/svg" xmlns:xlink="http://www.w3.org/1999/xlink" width="100" height="100" viewBox="0 0 100 100"><defs><clipPath id="b"><rect width="100" height="100"/></clipPath></defs><g id="a" clip-path="url(#b)"><g transform="translate(8.563 106.375)"><path d="M6.438-56.551v28.824H35.261V-56.551H18.79A16.472,16.472,0,0,1,35.261-73.022V-85.375A28.822,28.822,0,0,0,6.438-56.551Zm70-16.471V-85.375A28.824,28.824,0,0,0,47.614-56.551v28.824H76.438V-56.551H59.967A16.472,16.472,0,0,1,76.438-73.022Z" fill-rule="evenodd"/></g></g></svg>
